!!!!SEGMENT: pl-wn--sd-xvi-qu-273--063_gomolka-mikolaj--ku-sluzbie-twojej-boze-moj-obronca.krn
!!!cenid: 15xx:268
!!!COM: Gomółka, Mikołaj
!!!COM-rismid: pe30013343
!!!CDT: ~1535->1591/04/30
!!!CNT: Polish
!!!GTL: Melodiae na psalterz polski
!!!OTL: LXIII. Ku służbie Twojej, Boże, mój obrońca,
!!!ONB: PSALM LXIII. Deus deus meus, ad te de luce vigilo. Sitiuit in te anima mea: quàm multipliciter tibi caro mea?
!!!PDT: 1580
!!!AGN: Sacred
!!!SMS-siglum: PL-Wn
!!!SMS-shelfmark: SD XVI.Qu.273
!!!SMS-shelfwork: 063 G
!!!NIFC-rismid:
!!!ONB-nifc: Melodiae na psalterz polski
**kern	**text	**kern	**text	**kern	**text	**kern	**text
*part4	*part4	*part3	*part3	*part2	*part2	*part1	*part1
*staff4	*staff4	*staff3	*staff3	*staff2	*staff2	*staff1	*staff1
*clefF4	*	*clefC3	*	*clefC3	*	*clefC1	*
*k[b-]	*	*k[b-]	*	*k[b-]	*	*k[b-]	*
*F:	*	*F:	*	*F:	*	*F:	*
*M2/1	*	*M2/1	*	*M2/1	*	*M2/1	*
*met(C|)	*	*met(C|)	*	*met(C|)	*	*met(C|)	*
*I"BASSUS.	*	*I"TENOR.	*	*I"ALTUS.	*	*I"CANTUS.	*
=1-	=1	=1-	=1	=1-	=1	=1-	=1
1F\	Ku	1A/	Ku	1c\	Ku	1f/	Ku
2BB-/	służ-	2B-/	służ-	2d\	służ-	2f/	służ-
2BB-/	-bie	2B-/	-(bie)	4d\	-bie	4f/	-bie
.	.	.	.	4e\	.	4g/	.
=2-	=2	=2-	=2	=2-	=2	=2-	=2
2FF/	two-	2c/	two-	2.f\	two-	2a\	two-
2F\	-(iéy)	2c/	-(iéy)	.	.	2cc\	-iéy
.	.	.	.	4e\	.	.	.
2.BB-/	bo-	2.f\	bo-	4d\	-iéy	2.dd\	bo-
.	.	.	.	4c\	.	.	.
.	.	.	.	4d\	bo-	.	.
4C/	-że	4e\	-że	4e\	-że	4cc\	-że
=3-	=3	=3-	=3	=3-	=3	=3-	=3
4D\	móy	4d\	móy	2.f\	móy	2b-\	móy
4E\	.	4c/	o-	.	.	.	.
2F\	o-	4B-/	-broń-	.	.	2f/	o-
.	.	4A/	.	4d\	.	.	.
1C/	-broń-	4G/	.	4e\	o-	4g/	-broń-
.	.	4F/	.	2f\	-broń-	2a\	.
.	.	2G/	-cá,	.	.	.	.
.	.	.	.	4e\	.	4g/	.
=4-	=4	=4-	=4	=4-	=4	=4-	=4
2FF/	-cá.	2F/	.	2f\	-cá,	2a\	-cá,
2F\	Wstá-	2c\	Wstá-	2f\	Wstá-	2a\	Wstá-
2BB-/	-ię	2d\	-ię	2f\	-ię	2b-\	-ię
4r	.	4r	.	4r	.	4r	.
4E\	rá-	4B-/	rá-	4e-\	rá-	4g/	rá-
=5-	=5	=5-	=5	=5-	=5	=5-	=5
2C/	-né-	2e\	.	2g\	-né-	2cc\	-né-
2D/	-go	4d\	-né-	4f\	-go	2a\	-(go)
.	.	4c/	.	4eny\	.	.	.
2.GG/	nie	4B-/	-go	2.d\	nie	2.b-\	nie
.	.	4A/	.	.	.	.	.
.	.	4B-/	nie	.	.	.	.
4AA/	.	4c/	.	4c/	.	4a\	.
=6-	=6	=6-	=6	=6-	=6	=6-	=6
2BB-/	cze-	2d\	cze-	2B-/	cze-	2g/	cze-
2AA/	-ká-	2c/	-(ká)-	2c/	-ká-	2f/	-ká-
!!LO:PB:g=original
2BB-/	-iąc	2B-/	iąc	2d\	-iąc	2f/	-iąc
2C/	słoń-	4A/	słoń-	4c/	słoń-	2e/	słoń-
.	.	4G/	.	4B-/	-cá:	.	.
=7-	=7	=7-	=7	=7-	=7	=7-	=7
2FF/	-cá:	2A/	-cá:	2c/	.	2f/	-cá:
2BB-/	Prá-	2B-/	Prá-	2d\	Prá-	2f/	Prá-
2GG/	-gnie	2.B-/	-gnie	2d\	-gnie	2b-\	-gnie
2.GG/	ćię	.	.	2d\	ćię	2b-\	ćię
.	.	4A/	ćię	.	.	.	.
=8-	=8	=8-	=8	=8-	=8	=8-	=8
.	.	2G/	du-	1d\	du-	1b-\	du-
4AA/	.	.	.	.	.	.	.
4BB-/	du-	2G/	-szá,	.	.	.	.
4C/	-szá,	.	.	.	.	.	.
2D/	prá-	2F/	prá-	2d\	-szá,	2a\	-szá,
2D/	-gnie	2.B-/	-gnię	2d\	prá-	2f/	prá-
=9-	=9	=9-	=9	=9-	=9	=9-	=9
2BB-/	ćiá-	.	.	2f\	-gnie	2b-\	-gnie
.	.	4c/	.	.	.	.	.
2BB-/	-ło	2d\	ćiá-	2f\	ćiá-	2b-\	ćiá-
2C/	mo-	2.c/	-lo	2e\	ło	2a\	-ło
2C/	-ie,	.	.	2e\	mo-	1g\	mo-
.	.	4B-/	mo-	.	.	.	.
=10-	=10	=10-	=10	=10-	=10	=10-	=10
1D\	.	4A/	-ie	2.d\	-ie,	.	.
.	.	4G/	Já-	.	.	.	.
.	.	2A/	-ko	.	.	2f/	-ie,
.	.	.	.	4c/	.	.	.
2GG/	Já-	2G/	dżdżá	2B-/	Já-	2g/	Já-
2C/	-ko	1G/	źie-	2c/	-ko	2e/	-ko
=11-	=11	=11-	=11	=11-	=11	=11-	=11
2C/	dżdżá	.	.	2c/	dżdżá	2e/	dżdżá
2E\	źie-	2G/	.	2c/	źie-	2g/	źie-
1D\	.	2A/	.	1F/	.	1f/	.
.	.	2B-/	.	.	.	.	.
=12-	=12	=12-	=12	=12-	=12	=12-	=12
!!LO:PB:g=original
2C/	-miá	2.c\	-miá	2G/	-miá	2e/	-miá
2AA/	w sro-	.	w sro-	2A/	.	1a\	w sro-
.	.	4B-/	.	.	.	.	.
1D\	-gié	4A/	.	2A/	w sro-	.	.
.	.	4G/	.	.	.	.	.
.	.	2F/	.	2B-/	.	4g/	.
.	.	.	.	.	.	4f/	.
=13-	=13	=13-	=13	=13-	=13	=13-	=13
1C/	le-	4G/	-gié	1c\	-gié	4e/	.
.	.	4F/	.	.	.	4d/	.
.	.	4G/	.	.	.	4e/	-gié
.	.	4A/	le-	.	.	4f/	.
2BB-/	-tné	4B-/	.	2d\	.	2g\	le-
.	.	4A/	-tné	.	.	.	.
2D/	zno-	4G/	.	2B-/	le-	1f/	-tné
.	.	4F/	.	.	.	.	.
=14-	=14	=14-	=14	=14-	=14	=14-	=14
1C/	.	1G/	zno-	2.c/	-tné	.	.
.	.	.	.	.	.	2e/	zno-
.	.	.	.	4B-/	zno-	.	.
*	*	*000/left	*	*000/left	*	*	*
000FF/	-ie.	000F/	-ie.	000A/	-ie.	000f/	-ie.
==	==	==	==	==	==	==	==
*-	*-	*-	*-	*-	*-	*-	*-
!!!RDF**kern: l = terminal long
!!!system-decoration: s1,s2,s3,s4
!!!ENC: Marta Lawrence
!!!END: 2020-02-10
!!!URL-scan: https://polona.pl/item/melodiae-na-psalterz-polski,Nzk3MTM4ODQ/158 Scan on Polona
!!!IIIF: https://polona.pl/iiif/item/Nzk3MTM4ODQ/manifest.json
